X:14
T:Bobby Casey's (reel)
R:Reel
B:Irish Traditional Music Session Tunes 3 p24
S:Richard Darsie's web page
Z:Transcription, Slight arr., chords:Mike Long
M:C|
L:1/8
K:D
"D"DFA(B "G"B2)AB|"D"d2fd "A"edBA|"D"DFA(B "G"B2)AB|"D"dfaf "A"edBA|\
"D"DFA(B "G"B2)AB|"D"d2fd "A"e2fg|
"D"fgaf "G"g2fe|"D"defd "A"edBA:|\
|:"D"d2fd "A"eA~A2|"D"defg "A"afge|"D"d2fd "Em"eB~B2|
"G"gB~B2 "A"dBAB|\
"D"d2fd "G"efge|"D"fedf "A"edBd|"D"ABdf "G"bafb|"A"afeg "D"fdd2:|
